;FLAVOR:Marlin
;TIME:9369
;Filament used: 1.33332m
;Layer height: 0.05
;MINX:93.95
;MINY:85.7
;MINZ:0.2
;MAXX:126.049
;MAXY:134.3
;MAXZ:30.7
;Generated with Cura_SteamEngine master
M140 S60
M105
M190 S60
M104 S200
M105
M109 S200
M82 ;absolute extrusion mode
; Ender 3 Custom Start G-code
G92 E0 ; Reset Extruder
G28 ; Home all axes
G1 Z2.0 F3000 ; Move Z Axis up little to prevent scratching of Heat Bed
G1 X0.1 Y20 Z0.3 F5000.0 ; Move to start position
G1 X0.1 Y200.0 Z0.3 F1500.0 E15 ; Draw the first line
G1 X0.4 Y200.0 Z0.3 F5000.0 ; Move to side a little
G1 X0.4 Y20 Z0.3 F1500.0 E30 ; Draw the second line
G92 E0 ; Reset Extruder
G1 Z2.0 F3000 ; Move Z Axis up little to prevent scratching of Heat Bed
G1 X5 Y20 Z0.3 F5000.0 ; Move over to prevent blob squish
G92 E0
G92 E0
G1 F2700 E-5
;LAYER_COUNT:611
;LAYER:0
M107
G0 F6000 X96.427 Y88.396 Z0.2
;TYPE:SKIRT
G1 F2700 E0
G1 F1200 X96.646 Y88.177 E0.0103
G1 X97.232 Y87.647 E0.03658
G1 X97.868 Y87.18 E0.06282
G1 X98.673 Y86.715 E0.09374
G1 X98.959 Y86.572 E0.10438
G1 X99.682 Y86.256 E0.13062
G1 X100.434 Y86.013 E0.15691
G1 X101.206 Y85.848 E0.18317
G1 X101.51 Y85.799 E0.19341
G1 X102.295 Y85.713 E0.21967
G1 X102.752 Y85.7 E0.23488
G1 X117.06 Y85.701 E0.71076
G1 X117.848 Y85.741 E0.73701
G1 X118.316 Y85.803 E0.75271
G1 X118.616 Y85.852 E0.76282
G1 X119.388 Y86.019 E0.78909
G1 X120.139 Y86.262 E0.81534
G1 X120.887 Y86.593 E0.84255
G1 X121.167 Y86.735 E0.85299
G1 X121.852 Y87.128 E0.87926
G1 X122.494 Y87.587 E0.90551
G1 X123.154 Y88.177 E0.93495
G1 X123.373 Y88.396 E0.94525
G1 X123.903 Y88.982 E0.97153
G1 X124.37 Y89.618 E0.99777
G1 X124.815 Y90.383 E1.02721
G1 X124.957 Y90.663 E1.03765
G1 X125.278 Y91.385 E1.06393
G1 X125.524 Y92.135 E1.09019
G1 X125.699 Y92.937 E1.11749
G1 X125.749 Y93.244 E1.12783
G1 X125.836 Y94.029 E1.1541
G1 X125.85 Y94.498 E1.16971
G1 X125.85 Y101.433 E1.40037
G1 X125.905 Y101.695 E1.40927
G1 X125.972 Y102.249 E1.42783
G1 X126.022 Y102.84 E1.44756
G1 X126.049 Y103.63 E1.47385
G1 X126.023 Y104.151 E1.4912
G1 X125.973 Y104.746 E1.51106
G1 X125.867 Y105.529 E1.53734
G1 X125.85 Y105.605 E1.53993
G1 X125.849 Y117.856 E1.9474
G1 X125.809 Y118.644 E1.97364
G1 X125.747 Y119.113 E1.98938
G1 X125.697 Y119.419 E1.99969
G1 X125.53 Y120.191 E2.02596
G1 X125.286 Y120.942 E2.05222
G1 X124.956 Y121.689 E2.07939
G1 X124.814 Y121.969 E2.08983
G1 X124.421 Y122.654 E2.11609
G1 X123.962 Y123.296 E2.14234
G1 X123.347 Y123.981 E2.17296
G1 X123.126 Y124.2 E2.18331
G1 X122.538 Y124.727 E2.20957
G1 X121.899 Y125.192 E2.23586
G1 X121.124 Y125.637 E2.26558
G1 X120.844 Y125.777 E2.27599
G1 X120.121 Y126.093 E2.30224
G1 X119.369 Y126.336 E2.32852
G1 X118.61 Y126.499 E2.35434
G1 X118.303 Y126.549 E2.36469
G1 X117.518 Y126.636 E2.39096
G1 X117.049 Y126.65 E2.40656
G1 X115.613 Y126.65 E2.45432
G1 X115.536 Y126.974 E2.4654
G1 X115.474 Y127.189 E2.47284
G1 X115.185 Y128.013 E2.50189
G1 X115.098 Y128.223 E2.50945
G1 X114.762 Y128.932 E2.53554
G1 X114.655 Y129.131 E2.54306
G1 X114.238 Y129.818 E2.56979
G1 X114.109 Y130.008 E2.57742
G1 X113.654 Y130.614 E2.60263
G1 X113.511 Y130.786 E2.61007
G1 X112.906 Y131.434 E2.63955
G1 X112.743 Y131.59 E2.64706
G1 X112.193 Y132.069 E2.67132
G1 X112.015 Y132.21 E2.67887
G1 X111.346 Y132.685 E2.70616
G1 X111.155 Y132.806 E2.71368
G1 X110.428 Y133.214 E2.74141
G1 X110.225 Y133.314 E2.74893
G1 X109.539 Y133.612 E2.77381
G1 X109.325 Y133.693 E2.78142
G1 X108.513 Y133.951 E2.80976
G1 X108.296 Y134.007 E2.81721
G1 X107.507 Y134.167 E2.84399
G1 X107.281 Y134.201 E2.85159
G1 X106.55 Y134.276 E2.87603
G1 X106.332 Y134.288 E2.88329
G1 X105.901 Y134.3 E2.89763
G1 X102.739 Y134.299 E3.0028
G1 X101.95 Y134.259 E3.02908
G1 X101.484 Y134.197 E3.04471
G1 X101.184 Y134.148 E3.05482
G1 X100.412 Y133.981 E3.08109
G1 X99.661 Y133.738 E3.10735
G1 X98.913 Y133.407 E3.13455
G1 X98.633 Y133.265 E3.14499
G1 X97.948 Y132.872 E3.17126
G1 X97.306 Y132.413 E3.19751
G1 X96.646 Y131.823 E3.22695
G1 X96.427 Y131.604 E3.23725
G1 X95.897 Y131.018 E3.26353
G1 X95.43 Y130.382 E3.28978
G1 X94.985 Y129.617 E3.31921
G1 X94.843 Y129.337 E3.32966
G1 X94.522 Y128.615 E3.35594
G1 X94.276 Y127.865 E3.38219
G1 X94.101 Y127.063 E3.40949
G1 X94.051 Y126.756 E3.41984
G1 X93.964 Y125.971 E3.44611
G1 X93.95 Y125.502 E3.46171
G1 X93.951 Y94.495 E4.49301
G1 X93.991 Y93.706 E4.51928
G1 X94.05 Y93.254 E4.53445
G1 X94.099 Y92.95 E4.54469
G1 X94.264 Y92.178 E4.57094
G1 X94.507 Y91.426 E4.59723
G1 X94.843 Y90.663 E4.62496
G1 X94.985 Y90.383 E4.6354
G1 X95.378 Y89.698 E4.66167
G1 X95.837 Y89.056 E4.68792
G1 X96.427 Y88.396 E4.71736
G0 F6000 X96.709 Y88.678
G1 F1200 X96.928 Y88.459 E4.72766
G1 X97.5 Y87.945 E4.75324
G1 X98.122 Y87.492 E4.77883
G1 X98.852 Y87.073 E4.80683
G1 X99.138 Y86.93 E4.81746
G1 X99.843 Y86.622 E4.84305
G1 X100.576 Y86.39 E4.86862
G1 X101.269 Y86.243 E4.89218
G1 X101.573 Y86.194 E4.90243
G1 X102.338 Y86.112 E4.92801
G1 X102.752 Y86.1 E4.94179
G1 X117.06 Y86.101 E5.41768
G1 X117.828 Y86.141 E5.44325
G1 X118.252 Y86.198 E5.45748
G1 X118.552 Y86.247 E5.46759
G1 X119.303 Y86.41 E5.49315
G1 X120.034 Y86.65 E5.51874
G1 X120.706 Y86.95 E5.54322
G1 X120.986 Y87.092 E5.55366
G1 X121.653 Y87.475 E5.57924
G1 X122.277 Y87.926 E5.60485
G1 X122.872 Y88.459 E5.63142
G1 X123.091 Y88.678 E5.64172
G1 X123.605 Y89.25 E5.6673
G1 X124.058 Y89.872 E5.69289
G1 X124.458 Y90.564 E5.71948
G1 X124.6 Y90.844 E5.72992
G1 X124.912 Y91.547 E5.7555
G1 X125.149 Y92.279 E5.78109
G1 X125.304 Y93.001 E5.80565
G1 X125.354 Y93.308 E5.816
G1 X125.438 Y94.073 E5.84159
G1 X125.45 Y94.498 E5.85574
G1 X125.45 Y101.475 E6.08779
G1 X125.513 Y101.777 E6.09805
G1 X125.574 Y102.283 E6.115
G1 X125.624 Y102.874 E6.13473
G1 X125.649 Y103.643 E6.16032
G1 X125.624 Y104.118 E6.17614
G1 X125.574 Y104.713 E6.196
G1 X125.47 Y105.475 E6.22158
G1 X125.45 Y105.563 E6.22458
G1 X125.449 Y117.856 E6.63345
G1 X125.409 Y118.624 E6.65903
G1 X125.352 Y119.048 E6.67326
G1 X125.302 Y119.354 E6.68357
G1 X125.139 Y120.106 E6.70916
G1 X124.898 Y120.837 E6.73476
G1 X124.599 Y121.508 E6.75919
G1 X124.457 Y121.788 E6.76964
G1 X124.074 Y122.455 E6.79522
G1 X123.623 Y123.079 E6.82083
G1 X123.066 Y123.697 E6.8485
G1 X122.845 Y123.916 E6.85885
G1 X122.271 Y124.429 E6.88445
G1 X121.647 Y124.879 E6.91004
G1 X120.945 Y125.279 E6.93691
G1 X120.665 Y125.419 E6.94732
G1 X119.96 Y125.727 E6.97291
G1 X119.227 Y125.959 E6.99848
G1 X118.546 Y126.104 E7.02164
G1 X118.239 Y126.154 E7.03199
G1 X117.474 Y126.238 E7.05758
G1 X117.049 Y126.25 E7.07173
G1 X115.296 Y126.25 E7.13003
G1 X115.151 Y126.863 E7.15098
G1 X115.089 Y127.078 E7.15842
G1 X114.816 Y127.86 E7.18597
G1 X114.729 Y128.07 E7.19353
G1 X114.41 Y128.742 E7.21827
G1 X114.303 Y128.941 E7.22579
G1 X113.907 Y129.594 E7.25119
G1 X113.778 Y129.784 E7.25883
G1 X113.346 Y130.358 E7.28272
G1 X113.203 Y130.53 E7.29016
G1 X112.63 Y131.145 E7.31812
G1 X112.467 Y131.301 E7.32562
G1 X111.945 Y131.756 E7.34865
G1 X111.767 Y131.897 E7.35621
G1 X111.132 Y132.347 E7.38209
G1 X110.941 Y132.468 E7.38961
G1 X110.251 Y132.855 E7.41593
G1 X110.048 Y132.955 E7.42345
G1 X109.398 Y133.238 E7.44703
G1 X109.184 Y133.319 E7.45464
G1 X108.413 Y133.563 E7.48154
G1 X108.196 Y133.619 E7.48899
G1 X107.448 Y133.772 E7.51439
G1 X107.222 Y133.806 E7.52199
G1 X106.528 Y133.877 E7.54519
G1 X106.31 Y133.889 E7.55245
G1 X105.901 Y133.9 E7.56606
G1 X102.739 Y133.899 E7.67123
G1 X101.971 Y133.859 E7.69681
G1 X101.548 Y133.802 E7.711
G1 X101.248 Y133.753 E7.72112
G1 X100.497 Y133.59 E7.74667
G1 X99.766 Y133.35 E7.77227
G1 X99.094 Y133.05 E7.79674
G1 X98.814 Y132.908 E7.80718
G1 X98.147 Y132.525 E7.83277
G1 X97.523 Y132.074 E7.85837
G1 X96.928 Y131.541 E7.88494
G1 X96.709 Y131.322 E7.89524
G1 X96.195 Y130.75 E7.92082
G1 X95.742 Y130.128 E7.94641
G1 X95.342 Y129.436 E7.973
G1 X95.2 Y129.156 E7.98344
G1 X94.888 Y128.453 E8.00902
G1 X94.651 Y127.721 E8.03461
G1 X94.496 Y126.999 E8.05917
G1 X94.446 Y126.692 E8.06952
G1 X94.362 Y125.927 E8.09512
G1 X94.35 Y125.502 E8.10926
G1 X94.351 Y94.495 E9.14055
G1 X94.391 Y93.727 E9.16613
G1 X94.445 Y93.317 E9.17989
G1 X94.494 Y93.013 E9.19013
G1 X94.656 Y92.261 E9.21571
G1 X94.895 Y91.53 E9.24129
G1 X95.2 Y90.844 E9.26626
G1 X95.342 Y90.564 E9.2767
G1 X95.725 Y89.897 E9.30229
G1 X96.176 Y89.273 E9.32789
G1 X96.709 Y88.678 E9.35446
G0 F6000 X96.992 Y88.961
G1 F1200 X97.211 Y88.742 E9.36476
G1 X97.768 Y88.242 E9.38966
G1 X98.374 Y87.805 E9.41451
G1 X99.031 Y87.431 E9.43965
G1 X99.317 Y87.288 E9.45029
G1 X100.003 Y86.99 E9.47516
G1 X100.716 Y86.766 E9.50002
G1 X101.333 Y86.638 E9.52098
G1 X101.637 Y86.589 E9.53122
G1 X102.751 Y86.5 E9.56839
G1 X117.059 Y86.501 E10.04428
G1 X117.806 Y86.541 E10.06916
G1 X118.187 Y86.593 E10.08195
G1 X118.487 Y86.642 E10.09206
G1 X119.218 Y86.801 E10.11694
G1 X119.928 Y87.038 E10.14184
G1 X120.525 Y87.307 E10.16361
G1 X120.805 Y87.449 E10.17406
G1 X121.453 Y87.822 E10.19893
G1 X122.058 Y88.263 E10.22383
G1 X122.589 Y88.742 E10.24761
G1 X122.808 Y88.961 E10.25791
G1 X123.308 Y89.518 E10.28281
G1 X123.745 Y90.124 E10.30766
G1 X124.101 Y90.745 E10.33146
G1 X124.243 Y91.025 E10.34191
G1 X124.545 Y91.709 E10.36678
G1 X124.773 Y92.422 E10.39167
G1 X124.909 Y93.066 E10.41356
G1 X124.959 Y93.373 E10.42391
G1 X125.04 Y94.116 E10.44877
G1 X125.05 Y94.498 E10.46148
G1 X125.05 Y101.514 E10.69483
G1 X125.121 Y101.858 E10.70651
G1 X125.175 Y102.317 E10.72189
G1 X125.225 Y102.908 E10.74161
G1 X125.248 Y103.656 E10.7665
G1 X125.225 Y104.084 E10.78076
G1 X125.175 Y104.679 E10.80062
G1 X125.073 Y105.42 E10.8255
G1 X125.05 Y105.522 E10.82897
G1 X125.049 Y117.856 E11.23921
G1 X125.009 Y118.603 E11.26409
G1 X124.957 Y118.984 E11.27688
G1 X124.907 Y119.29 E11.28719
G1 X124.747 Y120.021 E11.31208
G1 X124.51 Y120.73 E11.33694
G1 X124.242 Y121.327 E11.35871
G1 X124.1 Y121.607 E11.36915
G1 X123.727 Y122.255 E11.39402
G1 X123.286 Y122.86 E11.41892
G1 X122.784 Y123.413 E11.44376
G1 X122.563 Y123.632 E11.45411
G1 X122.004 Y124.13 E11.47901
G1 X121.396 Y124.565 E11.50387
G1 X120.766 Y124.921 E11.52794
G1 X120.486 Y125.061 E11.53835
G1 X119.8 Y125.359 E11.56323
G1 X119.087 Y125.583 E11.58809
G1 X118.481 Y125.709 E11.60867
G1 X118.174 Y125.759 E11.61902
G1 X117.431 Y125.84 E11.64388
G1 X117.049 Y125.85 E11.65659
G1 X114.967 Y125.85 E11.72583
G1 X114.923 Y126.092 E11.73401
G1 X114.767 Y126.753 E11.7566
G1 X114.705 Y126.968 E11.76405
G1 X114.446 Y127.707 E11.79009
G1 X114.359 Y127.917 E11.79765
G1 X114.057 Y128.553 E11.82107
G1 X113.95 Y128.752 E11.82858
G1 X113.576 Y129.369 E11.85258
G1 X113.447 Y129.559 E11.86022
G1 X113.039 Y130.102 E11.88281
G1 X112.896 Y130.274 E11.89025
G1 X112.353 Y130.856 E11.91672
G1 X112.19 Y131.012 E11.92423
G1 X111.696 Y131.442 E11.94601
G1 X111.518 Y131.583 E11.95356
G1 X110.918 Y132.009 E11.97804
G1 X110.727 Y132.13 E11.98556
G1 X110.074 Y132.496 E12.01045
G1 X109.871 Y132.596 E12.01798
G1 X109.256 Y132.864 E12.04029
G1 X109.042 Y132.945 E12.0479
G1 X108.313 Y133.176 E12.07334
G1 X108.096 Y133.232 E12.08079
G1 X107.388 Y133.376 E12.10482
G1 X107.162 Y133.41 E12.11243
G1 X106.506 Y133.477 E12.13436
G1 X106.288 Y133.489 E12.14162
G1 X105.901 Y133.5 E12.1545
G1 X102.739 Y133.499 E12.25966
G1 X101.992 Y133.459 E12.28455
G1 X101.613 Y133.407 E12.29727
G1 X101.313 Y133.358 E12.30738
G1 X100.582 Y133.199 E12.33226
G1 X99.872 Y132.962 E12.35716
G1 X99.275 Y132.693 E12.37894
G1 X98.995 Y132.551 E12.38938
G1 X98.347 Y132.178 E12.41425
G1 X97.742 Y131.737 E12.43915
G1 X97.211 Y131.258 E12.46293
G1 X96.992 Y131.039 E12.47323
G1 X96.492 Y130.482 E12.49813
G1 X96.055 Y129.876 E12.52298
G1 X95.699 Y129.255 E12.54679
G1 X95.557 Y128.975 E12.55723
G1 X95.255 Y128.291 E12.5821
G1 X95.027 Y127.578 E12.60699
G1 X94.891 Y126.934 E12.62889
G1 X94.841 Y126.627 E12.63923
G1 X94.76 Y125.884 E12.66409
G1 X94.75 Y125.502 E12.6768
G1 X94.751 Y94.495 E13.7081
G1 X94.84 Y93.381 E13.74527
G1 X94.889 Y93.077 E13.75551
G1 X95.048 Y92.346 E13.78039
G1 X95.283 Y91.636 E13.80526
G1 X95.557 Y91.025 E13.82754
G1 X95.699 Y90.745 E13.83798
G1 X96.072 Y90.097 E13.86285
G1 X96.513 Y89.492 E13.88775
G1 X96.992 Y88.961 E13.91153
G0 F6000 X97.275 Y89.244
G1 F1200 X97.494 Y89.025 E13.92183
G1 X98.035 Y88.541 E13.94598
G1 X98.626 Y88.118 E13.97015
G1 X99.209 Y87.789 E13.99241
G1 X99.495 Y87.646 E14.00305
G1 X100.162 Y87.357 E14.02723
G1 X100.856 Y87.144 E14.05137
G1 X101.397 Y87.033 E14.06974
G1 X101.701 Y86.984 E14.07998
G1 X102.751 Y86.9 E14.11502
G1 X117.059 Y86.901 E14.5909
G1 X118.123 Y86.987 E14.62641
G1 X118.423 Y87.036 E14.63652
G1 X119.132 Y87.193 E14.66067
G1 X119.82 Y87.426 E14.68483
G1 X120.344 Y87.664 E14.70397
G1 X120.624 Y87.806 E14.71441
G1 X121.253 Y88.169 E14.73857
G1 X121.838 Y88.6 E14.76274
G1 X122.306 Y89.025 E14.78376
G1 X122.525 Y89.244 E14.79406
G1 X123.009 Y89.785 E14.81821
G1 X123.432 Y90.376 E14.84238
G1 X123.744 Y90.926 E14.86341
G1 X123.886 Y91.206 E14.87385
G1 X124.179 Y91.871 E14.89802
G1 X124.396 Y92.564 E14.92218
G1 X124.514 Y93.13 E14.94141
G1 X124.564 Y93.437 E14.95175
G1 X124.65 Y94.498 E14.98716
G1 X124.65 Y101.554 E15.22184
G1 X124.729 Y101.939 E15.23491
G1 X124.777 Y102.351 E15.24871
G1 X124.827 Y102.942 E15.26843
G1 X124.848 Y103.668 E15.29259
G1 X124.827 Y104.051 E15.30535
G1 X124.777 Y104.646 E15.32521
G1 X124.676 Y105.365 E15.34936
G1 X124.65 Y105.479 E15.35325
G1 X124.649 Y117.856 E15.76491
G1 X124.563 Y118.919 E15.80038
G1 X124.513 Y119.225 E15.81069
G1 X124.356 Y119.935 E15.83488
G1 X124.123 Y120.622 E15.859
G1 X123.885 Y121.146 E15.87815
G1 X123.743 Y121.426 E15.88859
G1 X123.38 Y122.055 E15.91274
G1 X122.949 Y122.64 E15.93691
G1 X122.503 Y123.129 E15.95892
G1 X122.282 Y123.348 E15.96927
G1 X121.738 Y123.83 E15.99344
G1 X121.145 Y124.25 E16.01761
G1 X120.588 Y124.563 E16.03886
G1 X120.308 Y124.703 E16.04928
G1 X119.641 Y124.992 E16.07345
G1 X118.947 Y125.205 E16.0976
G1 X118.417 Y125.314 E16.1156
G1 X118.11 Y125.364 E16.12594
G1 X117.049 Y125.45 E16.16135
G1 X114.618 Y125.45 E16.2422
G1 X114.572 Y125.793 E16.25371
G1 X114.53 Y126.019 E16.26136
G1 X114.383 Y126.642 E16.28265
G1 X114.321 Y126.857 E16.29009
G1 X114.076 Y127.554 E16.31466
G1 X113.989 Y127.764 E16.32222
G1 X113.705 Y128.364 E16.3443
G1 X113.598 Y128.563 E16.35182
G1 X113.245 Y129.144 E16.37443
G1 X113.116 Y129.334 E16.38207
G1 X112.731 Y129.846 E16.40337
G1 X112.588 Y130.018 E16.41081
G1 X112.076 Y130.567 E16.43578
G1 X111.913 Y130.723 E16.44328
G1 X111.448 Y131.129 E16.46382
G1 X111.27 Y131.27 E16.47137
G1 X110.704 Y131.671 E16.49444
G1 X110.513 Y131.792 E16.50196
G1 X109.898 Y132.138 E16.52543
G1 X109.695 Y132.238 E16.53296
G1 X109.114 Y132.49 E16.55402
G1 X108.9 Y132.571 E16.56163
G1 X108.213 Y132.789 E16.5856
G1 X107.996 Y132.845 E16.59306
G1 X107.329 Y132.981 E16.6157
G1 X107.103 Y133.015 E16.6233
G1 X106.484 Y133.078 E16.64399
G1 X106.266 Y133.09 E16.65126
G1 X105.901 Y133.1 E16.6634
G1 X102.739 Y133.099 E16.76857
G1 X101.677 Y133.013 E16.80401
G1 X101.377 Y132.964 E16.81412
G1 X100.668 Y132.807 E16.83827
G1 X99.98 Y132.574 E16.86243
G1 X99.456 Y132.336 E16.88157
G1 X99.176 Y132.194 E16.89201
G1 X98.547 Y131.831 E16.91617
G1 X97.962 Y131.4 E16.94034
G1 X97.494 Y130.975 E16.96136
G1 X97.275 Y130.756 E16.97166
G1 X96.791 Y130.215 E16.99581
G1 X96.368 Y129.624 E17.01998
G1 X96.056 Y129.074 E17.04101
G1 X95.914 Y128.794 E17.05145
G1 X95.621 Y128.129 E17.07562
G1 X95.404 Y127.436 E17.09978
G1 X95.286 Y126.87 E17.11901
G1 X95.236 Y126.563 E17.12935
G1 X95.15 Y125.502 E17.16476
G1 X95.151 Y94.495 E18.19605
G1 X95.235 Y93.445 E18.23109
G1 X95.284 Y93.141 E18.24133
G1 X95.439 Y92.431 E18.2655
G1 X95.671 Y91.743 E18.28965
G1 X95.914 Y91.206 E18.30925
G1 X96.056 Y90.926 E18.31969
G1 X96.419 Y90.297 E18.34385
G1 X96.85 Y89.712 E18.36802
G1 X97.275 Y89.244 E18.38904
G0 F6000 X97.558 Y89.527
G1 F1200 X97.777 Y89.308 E18.39934
G1 X98.302 Y88.839 E18.42276
G1 X98.877 Y88.433 E18.44617
G1 X99.388 Y88.147 E18.46565
G1 X99.674 Y88.004 E18.47628
G1 X100.321 Y87.725 E18.49972
G1 X100.995 Y87.521 E18.52314
G1 X101.46 Y87.428 E18.53891
G1 X101.764 Y87.379 E18.54915
G1 X102.751 Y87.3 E18.58209
G1 X117.059 Y87.301 E19.05797
G1 X118.058 Y87.382 E19.09131
G1 X118.358 Y87.431 E19.10142
G1 X119.046 Y87.584 E19.12486
